assets/teamviewer/original.svg

<svg viewBox="0 0 24 24" xmlns="http://www.w3.org/2000/svg" fill="#050A52"><path d="m20.17 11.998-6.225-3.401.685 2.144h-5.26l.684-2.145-6.225 3.404 6.225 3.404-.683-2.147h5.26l-.686 2.147zm.278-11.998h-16.895a3.553 3.553 0 0 0 -3.552 3.552v16.895a3.553 3.553 0 0 0 3.552 3.553h16.895a3.553 3.553 0 0 0 3.552-3.553v-16.895a3.553 3.553 0 0 0 -3.552-3.552zm-8.448 21.646c-5.328 0-9.648-4.32-9.648-9.648 0-5.329 4.32-9.646 9.648-9.646s9.65 4.32 9.65 9.648-4.32 9.648-9.649 9.648z"/></svg>

<svg xmlns="http://www.w3.org/2000/svg" fill="#050a52" viewBox="0 0 24 24"><path d="m20.17 11.998-6.225-3.401.685 2.144H9.37l.684-2.145L3.829 12l6.225 3.404-.683-2.147h5.26l-.686 2.147zM20.448 0H3.553A3.553 3.553 0 0 0 .001 3.552v16.895A3.553 3.553 0 0 0 3.553 24h16.895A3.553 3.553 0 0 0 24 20.447V3.552A3.553 3.553 0 0 0 20.448 0M12 21.646c-5.328 0-9.648-4.32-9.648-9.648 0-5.329 4.32-9.646 9.648-9.646s9.65 4.32 9.65 9.648-4.32 9.648-9.649 9.648z"/></svg>
